build/img/icon/logo_swift.svg

<svg width="171.426514" height="45.000000" viewBox="0 0 171.427 45" fill="none" xmlns="http://www.w3.org/2000/svg" xmlns:xlink="http://www.w3.org/1999/xlink">
	<desc>
			Created with Pixso.
	</desc>
	<defs>
		<linearGradient id="paint_linear_42_1131_0" x1="33.441544" y1="36.288368" x2="18.627033" y2="3.964049" gradientUnits="userSpaceOnUse">
			<stop stop-color="#6BFFFE"/>
			<stop offset="0.290000" stop-color="#64F5FE"/>
			<stop offset="0.420000" stop-color="#3EBAFB"/>
			<stop offset="0.500000" stop-color="#145CEF"/>
		</linearGradient>
		<linearGradient id="paint_linear_42_1132_0" x1="-5.803186" y1="24.062796" x2="17.966516" y2="25.272421" gradientUnits="userSpaceOnUse">
			<stop stop-color="#F47616"/>
			<stop offset="0.130000" stop-color="#F47216"/>
			<stop offset="0.260000" stop-color="#F46716"/>
			<stop offset="0.280000" stop-color="#F46516"/>
			<stop offset="0.450000" stop-color="#F26216"/>
			<stop offset="0.570000" stop-color="#EA5916"/>
			<stop offset="0.670000" stop-color="#DE4A16"/>
			<stop offset="0.750000" stop-color="#D03916"/>
		</linearGradient>
		<linearGradient id="paint_linear_42_1133_0" x1="0.796806" y1="15.609949" x2="18.944695" y2="16.532465" gradientUnits="userSpaceOnUse">
			<stop stop-color="#F47616"/>
			<stop offset="0.230000" stop-color="#F4DBA9"/>
			<stop offset="0.650000" stop-color="#F2E4C7"/>
			<stop offset="1.000000" stop-color="#D23B16"/>
		</linearGradient>
		<linearGradient id="paint_linear_42_1134_0" x1="18.608818" y1="22.431944" x2="21.342091" y2="22.571329" gradientUnits="userSpaceOnUse">
			<stop stop-color="#1A5EF0"/>
			<stop offset="0.230000" stop-color="#125EF1"/>
			<stop offset="0.990000" stop-color="#69FCFE"/>
		</linearGradient>
	</defs>
	<path id="Vector" d="M19.7195 0.541016L19.7612 19.1431L19.7612 23.1577L19.7056 43.8369C19.7034 43.9731 19.7469 44.1064 19.8291 44.2153C19.9113 44.3242 20.0276 44.4023 20.1594 44.4375C20.2911 44.4727 20.4308 44.4624 20.5563 44.4092C20.6818 44.3555 20.7858 44.2617 20.8517 44.1426L40.3984 13.8779L19.7195 0.541016Z" fill="url(#paint_linear_42_1131_0)" fill-opacity="1.000000" fill-rule="nonzero"/>
	<path id="Vector" d="M19.7196 0.541992L0.110413 30.876C0.0326538 30.9854 -0.00598145 31.1182 0.000732422 31.252C0.00744629 31.3862 0.059082 31.5142 0.147339 31.6152C0.235657 31.7163 0.355347 31.7847 0.487305 31.8091C0.619202 31.834 0.755615 31.8135 0.874512 31.7515L16.0173 24.9165L19.7057 23.2563L19.7196 0.541992Z" fill="url(#paint_linear_42_1132_0)" fill-opacity="1.000000" fill-rule="nonzero"/>
	<path id="Vector" d="M0.0274048 31.3833C0.00213623 31.2979 -0.00341797 31.208 0.0109863 31.1201C0.0254517 31.0322 0.0595093 30.9487 0.110718 30.876L19.7199 0.541992L19.7199 1.29932L0.110718 31.5918C0.0670776 31.5298 0.0385132 31.458 0.0274048 31.3833Z" fill="url(#paint_linear_42_1133_0)" fill-opacity="1.000000" fill-rule="nonzero"/>
	<path id="Vector" d="M20.0948 44.4307C19.9802 44.3882 19.8809 44.313 19.8091 44.2139C19.7374 44.1152 19.6967 43.9976 19.6919 43.8755L19.7153 0.541992L20.1503 0.847168L20.2545 44.4585C20.2004 44.4556 20.1467 44.4463 20.0948 44.4307Z" fill="url(#paint_linear_42_1134_0)" fill-opacity="1.000000" fill-rule="nonzero"/>
	<path id="Vector" d="M50.4999 13.8091L50.4999 13.1143L53.5493 13.1143L53.5493 13.8091C53.5493 16.6572 55.3692 18.0254 58.1893 18.0254C61.0095 18.0254 62.4891 16.6851 62.4891 14.8096C62.4891 12.9341 60.8914 12.2461 58.2727 11.6489L57.2169 11.3916C53.3756 10.5098 50.9653 9.14111 50.9653 5.64014C50.9653 2.13965 53.7438 0 57.8559 0C61.9681 0 65.087 2.13965 65.087 6.32129L65.087 7.34912L62.0375 7.34912L62.0375 6.32129C62.0375 3.75781 60.3566 2.70898 57.8698 2.70898C55.3831 2.70898 54.0216 3.75781 54.0216 5.55713C54.0216 7.35596 55.3622 8.08545 57.8976 8.65479L58.9465 8.91211C62.7947 9.7666 65.5524 11.1626 65.5524 14.7471C65.5524 18.3311 62.6766 20.7275 58.2102 20.7275C53.7438 20.7275 50.4999 18.2822 50.4999 13.8091Z" fill="#FCFCFC" fill-opacity="1.000000" fill-rule="nonzero"/>
	<path id="Vector" d="M68.011 6.29297L70.9423 6.29297L72.7067 18.3657L73.1651 18.3657L75.6102 6.29297L80.3683 6.29297L82.7856 18.3657L83.2441 18.3657L85.0084 6.29297L87.9397 6.29297L85.5502 20.3315L80.6531 20.3315L78.2011 8.32129L77.7496 8.32129L75.3254 20.3662L70.4005 20.3662L68.011 6.29297Z" fill="#FCFCFC" fill-opacity="1.000000" fill-rule="nonzero"/>
	<path id="Vector" d="M90.878 2.39697C90.8725 1.99609 90.9863 1.60254 91.2051 1.26611C91.4238 0.930176 91.7375 0.666992 92.1064 0.509766C92.4752 0.352539 92.8824 0.308105 93.2764 0.383301C93.6703 0.458008 94.0331 0.648438 94.3185 0.929688C94.604 1.21143 94.7993 1.57129 94.8796 1.96436C94.9598 2.35693 94.9214 2.76514 94.7693 3.13623C94.6172 3.50684 94.3582 3.82422 94.0251 4.04785C93.6922 4.271 93.3003 4.39014 92.8994 4.39014C92.6326 4.40381 92.366 4.36182 92.1165 4.26709C91.8669 4.17188 91.6398 4.02637 91.4496 3.83887C91.2595 3.65137 91.1105 3.42627 91.0121 3.17773C90.9137 2.92969 90.868 2.66357 90.878 2.39697ZM91.4198 6.29346L94.3511 6.29346L94.3511 20.332L91.4198 20.332L91.4198 6.29346Z" fill="#FCFCFC" fill-opacity="1.000000" fill-rule="nonzero"/>
	<path id="Vector" d="M101.242 8.77295L97.3101 8.77295L97.3101 6.29346L101.242 6.29346L101.242 3.22314C101.211 2.84521 101.263 2.46484 101.394 2.10889C101.525 1.75293 101.732 1.42969 102 1.16162C102.268 0.893555 102.592 0.686523 102.948 0.555664C103.304 0.424805 103.684 0.372559 104.062 0.402832L107.674 0.402832L107.674 2.84814L105 2.84814C104.885 2.83496 104.77 2.84863 104.662 2.88721C104.554 2.92627 104.456 2.98926 104.376 3.07178C104.296 3.1543 104.236 3.25439 104.201 3.36328C104.166 3.47266 104.156 3.58887 104.173 3.70264L104.173 6.29346L108.216 6.29346L108.216 8.77295L104.173 8.77295L104.173 20.3315L101.242 20.3315L101.242 8.77295Z" fill="#FCFCFC" fill-opacity="1.000000" fill-rule="nonzero"/>
	<path id="Vector" d="M113.315 17.5117L113.315 8.77344L109.446 8.77344L109.446 6.29346L113.315 6.29346L113.315 1.65332L116.246 1.65332L116.246 6.29346L120.414 6.29346L120.414 8.77344L116.246 8.77344L116.246 16.9976C116.246 17.5669 116.503 17.8521 117.045 17.8521L119.976 17.8521L119.976 20.3315L116.107 20.3315C115.73 20.3613 115.352 20.3086 114.998 20.1772C114.643 20.0454 114.322 19.8384 114.056 19.5698C113.79 19.3013 113.586 18.978 113.458 18.6226C113.33 18.2671 113.281 17.8877 113.315 17.5117Z" fill="#FCFCFC" fill-opacity="1.000000" fill-rule="nonzero"/>
	<path id="Vector" d="M53.9729 41.7744L53.9729 33.0361L50.1039 33.0361L50.1039 30.5493L53.9729 30.5493L53.9729 25.9092L56.9042 25.9092L56.9042 30.5493L61.072 30.5493L61.072 33.0293L56.9042 33.0293L56.9042 41.2603C56.9042 41.8228 57.1613 42.1079 57.7031 42.1079L60.6343 42.1079L60.6343 44.5874L56.7653 44.5874C56.3893 44.6172 56.0113 44.5645 55.6577 44.4336C55.304 44.3022 54.9832 44.0957 54.7174 43.8276C54.4517 43.5601 54.2474 43.2378 54.1188 42.8833C53.9903 42.5283 53.9405 42.1504 53.9729 41.7744Z" fill="#FCFCFC" fill-opacity="1.000000" fill-rule="nonzero"/>
	<path id="Vector" d="M63.2878 37.7593L63.2878 37.4189C63.2878 33.0361 66.1635 30.1602 70.2896 30.1602C74.4156 30.1602 77.0621 33.0083 77.0621 37.2803L77.0621 38.3916L66.2747 38.3916C66.2665 38.9351 66.3697 39.4741 66.5779 39.9766C66.7862 40.4785 67.0951 40.9326 67.4856 41.3105C67.8761 41.689 68.3399 41.9829 68.8484 42.1748C69.357 42.3672 69.8994 42.4526 70.4424 42.4272C71.2529 42.4839 72.0599 42.2759 72.7424 41.835C73.4249 41.394 73.9462 40.7441 74.2281 39.9819L76.6732 41.2324C76.1161 42.4131 75.22 43.4009 74.0992 44.0703C72.9783 44.7397 71.6835 45.0601 70.3799 44.9902C66.1288 44.9902 63.2878 42.1147 63.2878 37.7593ZM74.103 36.1406C73.9363 34.0571 72.4498 32.751 70.2618 32.751C69.2878 32.6782 68.3246 32.9937 67.5827 33.6289C66.8408 34.2642 66.3805 35.1675 66.3024 36.1406L74.103 36.1406Z" fill="#FCFCFC" fill-opacity="1.000000" fill-rule="nonzero"/>
	<path id="Vector" d="M78.778 37.7593L78.778 37.3911C78.778 32.8623 81.9038 30.1602 85.9813 30.1602C90.0587 30.1602 92.2953 32.6123 92.8372 35.5713L89.9892 36.1685C89.9532 35.686 89.8223 35.2158 89.604 34.7837C89.3857 34.3521 89.0842 33.9678 88.717 33.6528C88.3498 33.3379 87.924 33.0986 87.4641 32.9487C87.0042 32.7988 86.5191 32.7407 86.0368 32.7788C83.5848 32.7788 81.7094 34.4878 81.7094 37.4468L81.7094 37.7036C81.7094 40.6626 83.5848 42.3716 86.0368 42.3716C87.0198 42.4512 87.9945 42.1406 88.7508 41.5078C89.5071 40.875 89.9843 39.9702 90.0795 38.9888L92.9275 39.6416C92.2328 42.5732 90.0239 44.9902 85.9813 44.9902C81.9385 44.9902 78.778 42.3159 78.778 37.7593Z" fill="#FCFCFC" fill-opacity="1.000000" fill-rule="nonzero"/>
	<path id="Vector" d="M95.1781 24.666L98.1094 24.666L98.1094 32.5498L98.5609 32.5498C99.1027 31.501 100.297 30.334 102.979 30.334C106.167 30.334 108.473 32.5498 108.473 36.1689L108.473 44.5947L105.542 44.5947L105.542 36.3984C105.542 33.9463 104.257 32.835 102.124 32.835C99.7001 32.835 98.1094 34.4878 98.1094 37.5024L98.1094 44.5947L95.1781 44.5947L95.1781 24.666Z" fill="#FCFCFC" fill-opacity="1.000000" fill-rule="nonzero"/>
	<path id="Vector" d="M112.12 30.5498L114.967 30.5498L114.967 32.6338L115.419 32.6338C115.961 31.4946 117.183 30.2998 119.892 30.2998C123.081 30.2998 125.387 32.5156 125.387 36.1348L125.387 44.5605L122.456 44.5605L122.456 36.3638C122.456 33.9116 121.17 32.8003 119.038 32.8003C116.614 32.8003 115.023 34.4536 115.023 37.4683L115.023 44.5605L112.12 44.5605L112.12 30.5498Z" fill="#FCFCFC" fill-opacity="1.000000" fill-rule="nonzero"/>
	<path id="Vector" d="M128.52 26.6606C128.514 26.2598 128.628 25.8662 128.847 25.5298C129.066 25.1938 129.379 24.9307 129.748 24.7734C130.117 24.6162 130.524 24.5718 130.918 24.647C131.312 24.7217 131.675 24.9121 131.96 25.1934C132.246 25.4751 132.441 25.835 132.521 26.228C132.602 26.6206 132.563 27.0288 132.411 27.3999C132.259 27.7705 132 28.0879 131.667 28.3115C131.334 28.5347 130.942 28.6538 130.541 28.6538C130.275 28.6675 130.008 28.6255 129.758 28.5308C129.509 28.4355 129.282 28.29 129.092 28.1025C128.901 27.915 128.752 27.6899 128.654 27.4414C128.556 27.1934 128.51 26.9272 128.52 26.6606ZM129.062 30.5571L131.993 30.5571L131.993 44.5957L129.062 44.5957L129.062 30.5571Z" fill="#FCFCFC" fill-opacity="1.000000" fill-rule="nonzero"/>
	<path id="Vector" d="M135.112 37.7593L135.112 37.3911C135.112 32.8623 138.244 30.1602 142.315 30.1602C146.385 30.1602 148.636 32.6123 149.171 35.5713L146.33 36.1685C146.293 35.686 146.161 35.2153 145.942 34.7832C145.723 34.3516 145.421 33.9673 145.053 33.6523C144.685 33.3374 144.259 33.0981 143.799 32.9482C143.338 32.7983 142.853 32.7407 142.37 32.7788C139.918 32.7788 138.043 34.4878 138.043 37.4468L138.043 37.7036C138.043 40.6626 139.918 42.3716 142.37 42.3716C143.354 42.4526 144.329 42.1431 145.086 41.5103C145.843 40.877 146.32 39.9712 146.413 38.9888L149.261 39.6416C148.608 42.5732 146.357 44.9902 142.315 44.9902C138.272 44.9902 135.112 42.3159 135.112 37.7593Z" fill="#FCFCFC" fill-opacity="1.000000" fill-rule="nonzero"/>
	<path id="Vector" d="M151.157 40.5518C151.157 37.7036 153.436 36.2241 156.506 36.2241L160.813 36.2241L160.813 35.3145C160.813 33.689 159.847 32.6123 157.798 32.6123C155.749 32.6123 154.776 33.6611 154.436 35.1685L151.706 34.2861C152.401 32.0703 154.234 30.1602 157.826 30.1602C161.417 30.1602 163.688 32.0981 163.688 35.5156L163.688 41.2949C163.688 41.8647 163.973 42.1494 164.487 42.1494L165.675 42.1494L165.675 44.5942L163.452 44.5942C162.146 44.5942 161.236 43.8511 161.236 42.6841L161.236 42.6011L160.813 42.6011C160.389 43.5107 159.361 44.9902 156.457 44.9902C153.554 44.9902 151.157 43.3994 151.157 40.5518ZM160.813 38.7876L160.813 38.5024L156.714 38.5024C155.144 38.5024 154.123 39.1973 154.123 40.4683C154.123 41.7397 155.144 42.5522 156.902 42.5522C159.187 42.5732 160.813 41.1489 160.813 38.7876Z" fill="#FCFCFC" fill-opacity="1.000000" fill-rule="nonzero"/>
	<path id="Vector" d="M168.495 24.666L171.427 24.666L171.427 44.5947L168.495 44.5947L168.495 24.666Z" fill="#FCFCFC" fill-opacity="1.000000" fill-rule="nonzero"/>
</svg>

<svg width="171.427" height="45" viewBox="0 0 171.427 45" fill="none" xmlns="http://www.w3.org/2000/svg"><defs><linearGradient id="paint_linear_42_1131_0" x1="33.442" y1="36.288" x2="18.627" y2="3.964" gradientUnits="userSpaceOnUse"><stop stop-color="#6BFFFE"/><stop offset=".29" stop-color="#64F5FE"/><stop offset=".42" stop-color="#3EBAFB"/><stop offset=".5" stop-color="#145CEF"/></linearGradient><linearGradient id="paint_linear_42_1132_0" x1="-5.803" y1="24.063" x2="17.967" y2="25.272" gradientUnits="userSpaceOnUse"><stop stop-color="#F47616"/><stop offset=".13" stop-color="#F47216"/><stop offset=".26" stop-color="#F46716"/><stop offset=".28" stop-color="#F46516"/><stop offset=".45" stop-color="#F26216"/><stop offset=".57" stop-color="#EA5916"/><stop offset=".67" stop-color="#DE4A16"/><stop offset=".75" stop-color="#D03916"/></linearGradient><linearGradient id="paint_linear_42_1133_0" x1=".797" y1="15.61" x2="18.945" y2="16.532" gradientUnits="userSpaceOnUse"><stop stop-color="#F47616"/><stop offset=".23" stop-color="#F4DBA9"/><stop offset=".65" stop-color="#F2E4C7"/><stop offset="1" stop-color="#D23B16"/></linearGradient><linearGradient id="paint_linear_42_1134_0" x1="18.609" y1="22.432" x2="21.342" y2="22.571" gradientUnits="userSpaceOnUse"><stop stop-color="#1A5EF0"/><stop offset=".23" stop-color="#125EF1"/><stop offset=".99" stop-color="#69FCFE"/></linearGradient></defs><path id="Vector" d="M19.72.541l.041 18.602v4.015l-.055 20.679a.612.612 0 001.146.306l19.546-30.265L19.72.54z" fill="url(#paint_linear_42_1131_0)" fill-opacity="1" fill-rule="nonzero"/><path id="Vector" d="M19.72.542L.11 30.876a.598.598 0 00.765.875l15.142-6.835 3.689-1.66L19.72.542z" fill="url(#paint_linear_42_1132_0)" fill-opacity="1" fill-rule="nonzero"/><path id="Vector" d="M.027 31.383a.59.59 0 01.084-.507L19.72.542v.757L.11 31.592a.488.488 0 01-.083-.209z" fill="url(#paint_linear_42_1133_0)" fill-opacity="1" fill-rule="nonzero"/><path id="Vector" d="M20.095 44.43a.618.618 0 01-.403-.554L19.715.541l.435.305.105 43.611a.682.682 0 01-.16-.027z" fill="url(#paint_linear_42_1134_0)" fill-opacity="1" fill-rule="nonzero"/><path id="Vector" d="M50.5 13.81v-.696h3.05v.695c0 2.848 1.82 4.216 4.64 4.216 2.82 0 4.3-1.34 4.3-3.215 0-1.876-1.599-2.564-4.217-3.161l-1.056-.257c-3.841-.882-6.252-2.25-6.252-5.752 0-3.5 2.779-5.64 6.89-5.64 4.113 0 7.232 2.14 7.232 6.321V7.35h-3.05V6.321c0-2.563-1.68-3.612-4.167-3.612s-3.848 1.049-3.848 2.848 1.34 2.528 3.876 3.098l1.048.257c3.849.855 6.606 2.25 6.606 5.835 0 3.584-2.875 5.98-7.342 5.98-4.466 0-7.71-2.445-7.71-6.918zm17.511-7.517h2.931l1.765 12.073h.458L75.61 6.293h4.758l2.418 12.073h.458l1.764-12.073h2.932l-2.39 14.038h-4.897l-2.452-12.01h-.451l-2.425 12.045H70.4L68.011 6.293zm22.867-3.896A2.023 2.023 0 0193.276.383 2.022 2.022 0 0192.9 4.39a1.928 1.928 0 01-1.887-1.212 1.923 1.923 0 01-.134-.781zm.542 3.896h2.931v14.039H91.42V6.293zm9.822 2.48H97.31v-2.48h3.932v-3.07A2.61 2.61 0 01102 1.162a2.62 2.62 0 012.062-.76h3.612v2.446H105a.749.749 0 00-.827.855v2.59h4.043v2.48h-4.043v11.558h-2.931V8.773zm12.073 8.739V8.773h-3.869v-2.48h3.869v-4.64h2.931v4.64h4.168v2.48h-4.168v8.225c0 .569.257.854.799.854h2.931v2.48h-3.869a2.597 2.597 0 01-2.792-2.82zM53.973 41.774v-8.738h-3.87V30.55h3.87v-4.64h2.931v4.64h4.168v2.48h-4.168v8.231c0 .563.257.848.8.848h2.93v2.48h-3.869a2.6 2.6 0 01-2.792-2.814zm9.315-4.014v-.341c0-4.383 2.876-7.259 7.002-7.259 4.126 0 6.772 2.848 6.772 7.12v1.112H66.275a3.983 3.983 0 004.167 4.035 3.756 3.756 0 003.786-2.445l2.445 1.25a6.572 6.572 0 01-6.293 3.758c-4.251 0-7.092-2.875-7.092-7.23zm10.815-1.62c-.167-2.083-1.653-3.389-3.841-3.389a3.696 3.696 0 00-3.96 3.39h7.801zm4.675 1.62v-.369c0-4.529 3.126-7.23 7.203-7.23 4.078 0 6.314 2.451 6.856 5.41l-2.848.598a3.677 3.677 0 00-3.952-3.39c-2.452 0-4.328 1.709-4.328 4.668v.257c0 2.959 1.876 4.668 4.328 4.668a3.757 3.757 0 004.042-3.383l2.849.653c-.695 2.931-2.904 5.348-6.947 5.348-4.042 0-7.203-2.674-7.203-7.23zm16.4-13.094h2.931v7.884h.452c.542-1.049 1.736-2.216 4.418-2.216 3.188 0 5.494 2.216 5.494 5.835v8.426h-2.931v-8.197c0-2.452-1.285-3.563-3.418-3.563-2.424 0-4.015 1.653-4.015 4.667v7.093h-2.93V24.666zm16.942 5.884h2.847v2.084h.452c.542-1.14 1.764-2.334 4.473-2.334 3.189 0 5.495 2.216 5.495 5.835v8.425h-2.931v-8.196c0-2.452-1.286-3.564-3.418-3.564-2.424 0-4.015 1.654-4.015 4.668v7.092h-2.903V30.55zm16.4-3.89a2.017 2.017 0 011.228-1.887 2.019 2.019 0 012.773 1.455 2.018 2.018 0 01-.854 2.083 2.022 2.022 0 01-1.126.343 1.932 1.932 0 01-1.449-.552 1.93 1.93 0 01-.572-1.442zm.542 3.897h2.931v14.039h-2.931V30.557zm6.05 7.203v-.369c0-4.529 3.132-7.23 7.203-7.23 4.07 0 6.321 2.451 6.856 5.41l-2.841.598a3.688 3.688 0 00-2.531-3.22 3.682 3.682 0 00-1.429-.17c-2.452 0-4.327 1.709-4.327 4.668v.257c0 2.959 1.875 4.668 4.327 4.668a3.753 3.753 0 004.043-3.383l2.848.653c-.653 2.931-2.904 5.348-6.946 5.348-4.043 0-7.203-2.674-7.203-7.23zm16.045 2.792c0-2.848 2.279-4.328 5.349-4.328h4.307v-.91c0-1.625-.966-2.702-3.015-2.702-2.049 0-3.022 1.05-3.362 2.556l-2.73-.882c.695-2.216 2.528-4.126 6.12-4.126 3.591 0 5.862 1.938 5.862 5.356v5.779c0 .57.285.854.799.854h1.188v2.445h-2.223c-1.306 0-2.216-.743-2.216-1.91v-.083h-.423c-.424.91-1.452 2.39-4.356 2.39-2.903 0-5.3-1.592-5.3-4.44zm9.656-1.764v-.286h-4.099c-1.57 0-2.591.695-2.591 1.966 0 1.272 1.021 2.084 2.779 2.084 2.285.021 3.911-1.403 3.911-3.764zm7.682-14.122h2.932v19.929h-2.932V24.666z" fill="#FCFCFC" fill-opacity="1" fill-rule="nonzero"/></svg>
